X: 1
T:Achany Glen
M:C|
L:1/8
Q:80
C:Angus McPherson
S:March
K:HP
|: {g}A3/4B/4|
{Gdc}d2{g}e3/4d/4{g}B/4d3/4|
{gBd}B{e}A{GAG}A2|  !
{g}B/4{d}A3/4{g}B/4d3/4{g}c/4e3/4{g}d/4a3/4|
{fg}f{g}e{A}e{g}A3/4B/4|
{Gdc}d2{g}e3/4d/4{g}B/4d3/4|  !
{gBd}B{e}A{GAG}A2|
{g}B/4{d}A3/4{g}B/4d3/4{g}c/4e3/4{g}d/4a3/4|
{fg}fd{gdG}d:| |:  !
{g}f3/4g/4|
{ag}a3/2f/2{g}d3/4f/4a3/4d/4|
{g}c/4e3/4{gde}d{GBG}A2|  !
{ag}a3/2f/2{g}d3/4f/4a3/4d/4|
{gfg}f{g}e{A}e{g}f3/4g/4|
{ag}a3/2f/2{g}d3/4f/4a3/4d/4|  !
{g}c/4e3/4{gde}d{GBG}A2|
{g}B/4{d}A3/4{g}B/4d3/4{g}c/4e3/4{g}d/4a3/4|
{fg}fd{gdG}d:| |:  !
{g}A3/4B/4|
{Gdc}d2{gef}e3/4d/4{g}B/4d3/4|
{g}B/4{d}G3/4{gde}d{GBG}A2|  !
{Gdc}d2{g}f3/4e/4{g}d/4a3/4|
{fg}f{g}e{A}e{g}A3/4B/4|
{Gdc}d2{gef}e3/4d/4{g}B/4d3/4|  !
{g}B/4{d}G3/4{gde}d{GBG}A2|
{g}B/4{d}A3/4{g}B/4d3/4{g}c/4e3/4{g}d/4a3/4|
{fg}fd{gdG}d:| |:  !
{g}f3/4g/4|
a3/4g/4a3/4f/4{g}d3/4f/4a3/4d/4|
{g}c/4e3/4a3/4d/4{g}c/4e3/4{g}c/4{d}A3/4|  !
a3/4g/4a3/4f/4{g}d3/4f/4a3/4d/4|
{gfg}f{g}e{A}e{g}f3/4g/4|
a3/4g/4a3/4f/4{g}d3/4f/4a3/4d/4|  !
{g}c/4e3/4a3/4d/4{g}c/4e3/4{g}c/4{d}A3/4|
{g}B/4{d}G3/4{g}B/4d3/4{g}c/4e3/4{g}d/4a3/4|
{fg}fd{gdG}d:|  !
